X: 32315
T: Pigeon On The Gate, The
R: reel
M: 4/4
K: Adorian
|:gf|eA A2 eAgA|eA A2 gedB|G2 (3BAG dGBA|GABd ed (3Bcd|
eA A2 eAgA|eA A2 e2 dB|G2 (3Bcd gbaf|gedB A2:|
|:(3Bcd|eaag a3g|(3efg ab a3g|dggf g3e|d2 BAGA (3Bcd|
eaag a3g|(3efg ab a3g|dggf g3a|gedB A2:|

